images/youtube.svg

<svg width="40" height="40" viewBox="0 0 40 40" fill="none" xmlns="http://www.w3.org/2000/svg">
<path d="M37.5 19.8906C37.5 19.8047 37.5 19.707 37.4961 19.5937C37.4922 19.2773 37.4844 18.9219 37.4766 18.543C37.4453 17.4531 37.3906 16.3672 37.3047 15.3437C37.1875 13.9336 37.0156 12.7578 36.7812 11.875C36.5339 10.9537 36.0491 10.1135 35.3753 9.43827C34.7014 8.76306 33.8622 8.27655 32.9414 8.02734C31.8359 7.73047 29.6719 7.54687 26.625 7.43359C25.1758 7.37891 23.625 7.34375 22.0742 7.32422C21.5312 7.31641 21.0273 7.3125 20.5742 7.30859H19.4258C18.9727 7.3125 18.4688 7.31641 17.9258 7.32422C16.375 7.34375 14.8242 7.37891 13.375 7.43359C10.3281 7.55078 8.16016 7.73437 7.05859 8.02734C6.1375 8.27593 5.29793 8.76225 4.624 9.43754C3.95007 10.1128 3.46547 10.9534 3.21875 11.875C2.98047 12.7578 2.8125 13.9336 2.69531 15.3437C2.60938 16.3672 2.55469 17.4531 2.52344 18.543C2.51172 18.9219 2.50781 19.2773 2.50391 19.5937C2.50391 19.707 2.5 19.8047 2.5 19.8906V20.1094C2.5 20.1953 2.5 20.293 2.50391 20.4062C2.50781 20.7227 2.51562 21.0781 2.52344 21.457C2.55469 22.5469 2.60938 23.6328 2.69531 24.6562C2.8125 26.0664 2.98438 27.2422 3.21875 28.125C3.71875 29.9961 5.1875 31.4726 7.05859 31.9726C8.16016 32.2695 10.3281 32.4531 13.375 32.5664C14.8242 32.6211 16.375 32.6562 17.9258 32.6758C18.4688 32.6836 18.9727 32.6875 19.4258 32.6914H20.5742C21.0273 32.6875 21.5312 32.6836 22.0742 32.6758C23.625 32.6562 25.1758 32.6211 26.625 32.5664C29.6719 32.4492 31.8398 32.2656 32.9414 31.9726C34.8125 31.4726 36.2812 30 36.7812 28.125C37.0195 27.2422 37.1875 26.0664 37.3047 24.6562C37.3906 23.6328 37.4453 22.5469 37.4766 21.457C37.4883 21.0781 37.4922 20.7227 37.4961 20.4062C37.4961 20.293 37.5 20.1953 37.5 20.1094V19.8906ZM34.6875 20.0937C34.6875 20.1758 34.6875 20.2656 34.6836 20.3711C34.6797 20.6758 34.6719 21.0117 34.6641 21.375C34.6367 22.4141 34.582 23.4531 34.5 24.418C34.3945 25.6758 34.2461 26.707 34.0625 27.3984C33.8203 28.3008 33.1094 29.0156 32.2109 29.2539C31.3906 29.4727 29.3242 29.6484 26.5156 29.7539C25.0938 29.8086 23.5625 29.8437 22.0352 29.8633C21.5 29.8711 21.0039 29.875 20.5586 29.875H19.4414L17.9648 29.8633C16.4375 29.8437 14.9102 29.8086 13.4844 29.7539C10.6758 29.6445 8.60547 29.4727 7.78906 29.2539C6.89062 29.0117 6.17969 28.3008 5.9375 27.3984C5.75391 26.707 5.60547 25.6758 5.5 24.418C5.41797 23.4531 5.36719 22.4141 5.33594 21.375C5.32422 21.0117 5.32031 20.6719 5.31641 20.3711C5.31641 20.2656 5.3125 20.1719 5.3125 20.0937V19.9062C5.3125 19.8242 5.3125 19.7344 5.31641 19.6289C5.32031 19.3242 5.32813 18.9883 5.33594 18.625C5.36328 17.5859 5.41797 16.5469 5.5 15.582C5.60547 14.3242 5.75391 13.293 5.9375 12.6016C6.17969 11.6992 6.89062 10.9844 7.78906 10.7461C8.60938 10.5273 10.6758 10.3516 13.4844 10.2461C14.9063 10.1914 16.4375 10.1562 17.9648 10.1367C18.5 10.1289 18.9961 10.125 19.4414 10.125H20.5586L22.0352 10.1367C23.5625 10.1562 25.0898 10.1914 26.5156 10.2461C29.3242 10.3555 31.3945 10.5273 32.2109 10.7461C33.1094 10.9883 33.8203 11.6992 34.0625 12.6016C34.2461 13.293 34.3945 14.3242 34.5 15.582C34.582 16.5469 34.6328 17.5859 34.6641 18.625C34.6758 18.9883 34.6797 19.3281 34.6836 19.6289C34.6836 19.7344 34.6875 19.8281 34.6875 19.9062V20.0937ZM16.5234 25.2344L25.5859 19.9609L16.5234 14.7656V25.2344Z" fill="white"/>
</svg>

<svg xmlns="http://www.w3.org/2000/svg" width="40" height="40" fill="none"><path fill="#fff" d="M37.5 19.89c0-.085 0-.183-.004-.296-.004-.317-.012-.672-.02-1.051a58.907 58.907 0 0 0-.171-3.2c-.117-1.41-.29-2.585-.524-3.468a5.45 5.45 0 0 0-3.84-3.848c-1.105-.297-3.27-.48-6.316-.593-1.45-.055-3-.09-4.55-.11-.544-.008-1.048-.011-1.5-.015h-1.15c-.452.003-.956.007-1.5.015-1.55.02-3.1.055-4.55.11-3.047.117-5.215.3-6.316.593a5.443 5.443 0 0 0-3.84 3.848c-.239.883-.406 2.059-.524 3.469a58.827 58.827 0 0 0-.172 3.199c-.011.379-.015.734-.02 1.05 0 .114-.003.212-.003.298v.218c0 .086 0 .184.004.297.004.317.012.672.02 1.051.03 1.09.085 2.176.171 3.2.118 1.41.29 2.585.524 3.468a5.443 5.443 0 0 0 3.84 3.848c1.101.297 3.27.48 6.316.593 1.45.055 3 .09 4.55.11.544.008 1.048.011 1.5.015h1.15c.452-.004.956-.007 1.5-.015 1.55-.02 3.1-.055 4.55-.11 3.047-.117 5.215-.3 6.316-.593a5.436 5.436 0 0 0 3.84-3.848c.239-.883.407-2.059.524-3.469.086-1.023.14-2.11.172-3.199.011-.379.015-.734.02-1.05 0-.114.003-.212.003-.298v-.218Zm-2.813.204c0 .082 0 .172-.003.277-.004.305-.012.64-.02 1.004a52.896 52.896 0 0 1-.164 3.043c-.105 1.258-.254 2.289-.438 2.98a2.628 2.628 0 0 1-1.851 1.856c-.82.219-2.887.394-5.695.5a177.713 177.713 0 0 1-5.957.121H19.44l-1.476-.012a178.18 178.18 0 0 1-4.48-.11c-2.81-.108-4.88-.28-5.696-.5a2.635 2.635 0 0 1-1.851-1.855c-.184-.691-.333-1.722-.438-2.98a56.584 56.584 0 0 1-.164-3.043c-.012-.363-.016-.703-.02-1.004 0-.105-.003-.2-.003-.277v-.188c0-.082 0-.172.003-.277.004-.305.012-.64.02-1.004.027-1.04.082-2.078.164-3.043.105-1.258.254-2.289.438-2.98a2.628 2.628 0 0 1 1.851-1.856c.82-.219 2.887-.394 5.695-.5a177.254 177.254 0 0 1 5.957-.121h1.118l1.476.012c1.527.02 3.055.054 4.48.11 2.81.108 4.88.28 5.696.5.898.241 1.61.952 1.852 1.855.183.691.331 1.722.437 2.98.082.965.133 2.004.164 3.043.012.363.016.703.02 1.004 0 .105.004.2.004.277v.188Zm-18.164 5.14 9.063-5.273-9.063-5.195v10.468Z"/></svg>
